;FLAVOR:Marlin
;TIME:6907
;Filament used: 7.66576m
;Layer height: 0.3
;MINX:8.393
;MINY:10.753
;MINZ:0.3
;MAXX:226.607
;MAXY:225.132
;MAXZ:4.8
;ARCWELDERPROCESSED
; Postprocessed by [ArcWelder](https://github.com/FormerLurker/ArcWelderLib)
; Copyright(C) 2020 - Brad Hochgesang
; resolution=0.05mm
; path_tolerance=1%
; max_radius=1000000.00mm
; g90_influences_extruder=True
; firmware_compensation=True
; mm_per_arc_segment=1.00mm
; min_arc_segments=12
; default_xyz_precision=3
; default_e_precision=5

;Generated with Cura_SteamEngine 4.8
M140 S60
M105
M190 S60
M104 S206
M105
M109 S206
M82 ;absolute extrusion mode
; Ender 3 Custom Start G-code
G92 E0 ; Reset Extruder
G28 ; Home all axes
G1 Z2.0 F3000 ; Move Z Axis up little to prevent scratching of Heat Bed
G1 X0.1 Y20 Z0.3 F5000.0 ; Move to start position
G1 X0.1 Y200.0 Z0.3 F1500.0 E15 ; Draw the first line
G1 X0.4 Y200.0 Z0.3 F5000.0 ; Move to side a little
G1 X0.4 Y20 Z0.3 F1500.0 E30 ; Draw the second line
G92 E0 ; Reset Extruder
G1 Z2.0 F3000 ; Move Z Axis up little to prevent scratching of Heat Bed
G1 X5 Y20 Z0.3 F5000.0 ; Move over to prevent blob squish
G92 E0
G92 E0
G1 F1500 E-6.5
;LAYER_COUNT:16
;LAYER:0
M107
;MESH:ledMount.stl(11)
G0 F6000 X48.179 Y43.001 Z0.3
;TYPE:WALL-INNER
G1 F1500 E0
G1 F1200 X48.179 Y36.501 E0.40536
G1 X34.679 Y36.501 E1.24726
G1 X34.679 Y43.001 E1.65261
G1 X48.179 Y43.001 E2.49451
G0 F6000 X47.679 Y42.501
;TYPE:WALL-OUTER
G1 F1200 X47.679 Y37.001 E2.83751
G1 X35.179 Y37.001 E3.61704
G1 X35.179 Y42.501 E3.96003
G1 X47.679 Y42.501 E4.73957
G0 F6000 X48.029 Y42.501
G0 X48.179 Y26.001
;TYPE:WALL-INNER
G1 F1200 X48.179 Y19.501 E5.14493
G1 X34.679 Y19.501 E5.98682
G1 X34.679 Y26.001 E6.39218
G1 X48.179 Y26.001 E7.23408
G0 F6000 X47.679 Y25.501
;TYPE:WALL-OUTER
G1 F1200 X47.679 Y20.001 E7.57707
G1 X35.179 Y20.001 E8.35661
G1 X35.179 Y25.501 E8.6996
G1 X47.679 Y25.501 E9.47914
G1 F1500 E2.97914
G0 F6000 X48.029 Y25.501
G0 X47.957 Y42.779
G0 X43.472 Y44.223
G0 X43.25 Y67.706
;TYPE:WALL-INNER
G1 F1500 E9.47914
G3 X39.750 Y67.706 I-1.750 J-34.529 E9.69750 F1200
G1 X39.75 Y44.001 E11.17581
G1 X32.25 Y44.001 E11.64353
G1 X32.25 Y27.931 E12.6457
G1 X9.054 Y14.539 E14.31604
G3 X10.802 Y11.508 I31.038 J15.880 E14.53434
G1 X31.501 Y23.458 E16.02486
G1 X32.25 Y23.023 E16.07888
G1 X32.25 Y18.501 E16.36088
G1 X50.75 Y18.501 E17.51459
G1 X50.75 Y23.023 E17.7966
G1 X51.499 Y23.458 E17.85061
G1 X72.198 Y11.508 E19.34113
G3 X73.947 Y14.539 I-29.328 J18.943 E19.55946
G1 X50.75 Y27.931 E21.22986
G1 X50.75 Y44.001 E22.23203
G1 X43.25 Y44.001 E22.69975
G1 X43.25 Y67.706 E24.17806
G0 F6000 X43.75 Y68.18
;TYPE:WALL-OUTER
G3 X39.250 Y68.180 I-2.250 J-35.933 E24.45886 F1200
G1 X39.25 Y44.501 E25.93555
G1 X31.75 Y44.501 E26.40327
G1 X31.75 Y28.22 E27.4186
G1 X8.393 Y14.735 E29.10054
G3 X10.642 Y10.838 I32.439 J16.124 E29.38131
G1 X31.5 Y22.88 E30.88329
G1 X31.75 Y22.735 E30.90132
G1 X31.75 Y18.001 E31.19654
G1 X51.25 Y18.001 E32.41261
G1 X51.25 Y22.735 E32.70784
G1 X51.5 Y22.88 E32.72586
G1 X72.358 Y10.838 E34.22784
G3 X74.607 Y14.735 I-29.968 J19.892 E34.50862
G1 X51.25 Y28.22 E36.19055
G1 X51.25 Y44.501 E37.20588
G1 X43.75 Y44.501 E37.6736
G1 X43.75 Y68.18 E39.15029
G0 F6000 X43.428 Y67.874
G0 X42.59 Y67.379
;TYPE:FILL
G1 F1200 X42.899 Y67.296 E39.17024
G1 X42.9 Y67.372 E39.17498
G3 X40.100 Y67.372 I-1.400 J-34.788 E39.34964 F1200
G1 X40.099 Y67.088 E39.36735
G1 X42.899 Y56.64 E40.04191
G1 X42.899 Y54.873 E40.15211
G1 X40.099 Y55.623 E40.33288
G1 X40.099 Y55.496 E40.3408
G1 X42.899 Y45.049 E41.0153
G1 X42.898 Y45.556 E41.04691
G1 X40.099 Y46.306 E41.22762
G1 X40.1 Y46.285 E41.22894
G1 X42.9 Y49.085 E41.47588
G1 X42.898 Y48.662 E41.50226
G1 X40.099 Y49.412 E41.68297
G1 X40.1 Y50.528 E41.75257
G1 X42.9 Y53.328 E41.99951
G1 X42.899 Y51.767 E42.09686
G1 X40.099 Y52.517 E42.27763
G1 X40.1 Y54.771 E42.4182
G1 X42.9 Y57.571 E42.66514
G1 X42.898 Y57.979 E42.69058
G1 X40.099 Y58.729 E42.8713
G1 X40.1 Y59.013 E42.88901
G1 X42.9 Y61.813 E43.13595
G1 X42.898 Y61.085 E43.18135
G1 X40.099 Y61.835 E43.36206
G1 X40.099 Y64.941 E43.55576
G1 X42.899 Y64.191 E43.73653
G1 X42.9 Y66.056 E43.85284
G1 X40.1 Y63.256 E44.09978
G0 F6000 X39.528 Y44.223
G0 X35.266 Y44.212
G0 X34.329 Y40.515
G1 F1200 X32.599 Y38.785 E44.25236
G1 X32.6 Y38.998 E44.26564
G1 X34.328 Y38.535 E44.37721
G1 X34.328 Y41.641 E44.5709
G1 X32.6 Y42.104 E44.68247
G1 X32.599 Y43.028 E44.74009
G1 X33.221 Y43.649 E44.7949
G1 X33.956 Y43.65 E44.84074
G1 X34.328 Y42.26 E44.93048
G1 X34.329 Y43.351 E44.99851
G1 X37.142 Y43.349 E45.17394
G1 X37.062 Y43.65 E45.19336
G1 X37.463 Y43.649 E45.21837
G1 X37.164 Y43.35 E45.24474
G1 X39.54 Y43.35 E45.39291
G1 X38.417 Y43.651 E45.46542
G1 X40.1 Y43.651 E45.57038
G1 X40.1 Y43.904 E45.58615
G1 X40.248 Y43.349 E45.62198
G1 X41.407 Y43.35 E45.69425
G1 X42.9 Y44.843 E45.82593
G1 X42.9 Y43.651 E45.90026
G1 X43.273 Y43.651 E45.92353
G1 X43.354 Y43.35 E45.94296
G1 X45.65 Y43.35 E46.08615
G1 X45.949 Y43.65 E46.11256
G1 X46.379 Y43.651 E46.13938
G1 X46.46 Y43.349 E46.15888
G1 X48.529 Y43.351 E46.28791
G1 X48.528 Y41.985 E46.3731
G1 X50.192 Y43.65 E46.51989
G1 X50.4 Y43.651 E46.53287
G1 X50.398 Y43.546 E46.53942
G1 X50.008 Y43.651 E46.5646
G1 X49.485 Y43.651 E46.59722
G1 X50.399 Y40.239 E46.8175
G1 X50.398 Y40.44 E46.83004
G1 X48.529 Y40.941 E46.95071
G1 X48.528 Y37.836 E47.14434
G1 X50.398 Y37.335 E47.26508
G1 X50.399 Y39.614 E47.4072
G1 X48.528 Y37.743 E47.57221
G1 X48.529 Y36.151 E47.67149
G0 F6000 X45.621 Y26.351
G1 F1200 X50.399 Y31.129 E48.09289
G1 X50.398 Y31.123 E48.09327
G1 X32.599 Y35.892 E49.24241
G1 X32.599 Y37.124 E49.31924
G1 X35.486 Y26.35 E50.01484
G1 X34.329 Y26.351 E50.087
G1 X34.327 Y26.112 E50.1019
G1 X31.235 Y26.94 E50.30152
G1 X32.09 Y27.433 E50.36307
G1 X34.39 Y18.85 E50.91722
G1 X33.878 Y18.85 E50.94915
G1 X34.328 Y19.301 E50.98888
G1 X34.328 Y19.9 E51.02623
G1 X32.6 Y20.363 E51.1378
G1 X32.599 Y21.814 E51.22828
G1 X34.328 Y23.543 E51.38077
G1 X34.328 Y23.006 E51.41426
G1 X31.816 Y23.679 E51.57644
G1 X31.501 Y23.863 E51.59919
G1 X31.383 Y23.795 E51.60768
G1 X27.56 Y24.819 E51.8545
G1 X29.4 Y25.88 E51.98696
G1 X30.15 Y23.082 E52.16761
G1 X28.91 Y22.368 E52.25684
G1 X42.692 Y36.15 E53.47234
G1 X42.177 Y36.15 E53.50445
G1 X44.803 Y26.349 E54.13723
G1 X41.697 Y26.35 E54.33093
G1 X39.071 Y36.15 E54.96364
G1 X38.449 Y36.15 E55.00243
G1 X32.599 Y30.3 E55.51837
G1 X32.599 Y29.68 E55.55703
G1 X45.028 Y26.35 E56.35948
G1 X47.909 Y26.349 E56.53915
G1 X45.283 Y36.15 E57.17192
G1 X43.226 Y36.15 E57.3002
G1 X50.398 Y34.229 E57.76323
G1 X50.399 Y35.372 E57.83451
G1 X41.378 Y26.351 E58.63011
G1 X37.135 Y26.351 E58.89472
G1 X46.934 Y36.15 E59.75894
G1 X48.389 Y36.149 E59.84967
G1 X50.399 Y28.648 E60.33396
G1 X50.398 Y28.017 E60.37331
G1 X32.599 Y32.786 E61.52246
G1 X32.599 Y34.542 E61.63197
G1 X34.329 Y36.272 E61.78454
G1 X34.329 Y36.151 E61.79209
G1 X35.965 Y36.151 E61.89411
G1 X38.592 Y26.35 E62.52691
G0 F6000 X34.901 Y25.779
G0 X34.901 Y19.723
G0 X37.415 Y19.151
G1 F1200 X37.495 Y18.849 E62.54639
G1 X38.12 Y18.85 E62.58537
G1 X38.42 Y19.15 E62.61182
G1 X37.125 Y19.15 E62.69258
G1 X38.245 Y18.85 E62.76489
G1 X40.601 Y18.849 E62.91182
G1 X40.521 Y19.151 E62.9313
G1 X42.663 Y19.15 E63.06488
G1 X42.363 Y18.85 E63.09134
G1 X43.707 Y18.85 E63.17516
G1 X43.626 Y19.151 E63.1946
G1 X46.905 Y19.15 E63.39908
G1 X46.606 Y18.85 E63.4255
G1 X46.813 Y18.85 E63.43841
G1 X46.732 Y19.15 E63.45779
G0 F6000 X47.957 Y19.723
G0 X48.528 Y20.772
G1 F1200 X50.399 Y22.643 E63.6228
G1 X50.399 Y21.805 E63.67506
G1 X48.529 Y22.306 E63.79579
G1 X48.528 Y19.201 E63.98943
G1 X49.836 Y18.85 E64.07388
G1 X49.919 Y18.85 E64.07906
G1 X48.529 Y24.038 E64.41401
G1 X48.528 Y25.412 E64.49969
G1 X59.501 Y22.472 E65.20814
G1 X59.002 Y22.761 E65.2441
G1 X56.953 Y20.713 E65.42476
G1 X59.063 Y19.495 E65.5767
G1 X58.039 Y23.317 E65.82346
G1 X56.312 Y24.314 E65.94781
G1 X54.264 Y22.266 E66.12844
G1 X55.389 Y21.615 E66.20949
G1 X54.365 Y25.438 E66.45631
G1 X53.622 Y25.867 E66.50982
G1 X51.574 Y23.818 E66.69048
G1 X51.715 Y23.736 E66.70065
G1 X50.691 Y27.559 E66.94747
G1 X50.932 Y27.42 E66.96482
G1 X48.528 Y25.015 E67.17688
G0 F6000 X70.403 Y12.949
G1 F1200 X72.45 Y14.997 E67.35746
G1 X72.736 Y14.832 E67.37805
G1 X73.059 Y13.625 E67.45597
G2 X72.563 Y12.761 I-7.417 J3.683 E67.51811 F1200
G1 X69.14 Y13.678 E67.7391
G1 X67.713 Y14.502 E67.84186
G1 X69.761 Y16.549 E68.02244
G1 X69.539 Y16.677 E68.03842
G1 X59.1 Y19.474 E68.71239
G1 X59.644 Y19.161 E68.75153
G1 X61.691 Y21.208 E68.93206
G1 X61.713 Y21.195 E68.93366
G1 X62.738 Y17.373 E69.18043
G1 X62.334 Y17.608 E69.20958
G1 X64.381 Y19.655 E69.39011
G1 X65.388 Y19.074 E69.46261
G1 X66.412 Y15.253 E69.70931
G1 X65.024 Y16.055 E69.80928
G1 X67.071 Y18.102 E69.98981
G1 X69.062 Y16.953 E70.13317
G1 X70.086 Y13.132 E70.37987
G1 X72.085 Y11.979 E70.52378
G1 F1500 E64.02378
G0 F6000 X51.5 Y23.209
G0 X50.966 Y22.898
G0 X50.972 Y18.279
G0 X32.028 Y18.279
G0 X32.034 Y22.898
G0 X31.5 Y23.209
G0 X20.36 Y17.431
G1 F1500 E70.52378
G1 F1200 X16.538 Y18.455 E70.77054
G1 X18.641 Y19.668 E70.92194
G1 X19.391 Y16.871 E71.10253
G1 X22.08 Y18.424 E71.29618
G1 X21.331 Y21.221 E71.47676
G1 X20.212 Y20.576 E71.5573
G1 X24.035 Y19.552 E71.80412
G1 X24.77 Y19.977 E71.85707
G1 X24.021 Y22.774 E72.03764
G1 X23.886 Y22.698 E72.0473
G1 X27.709 Y21.673 E72.29414
G1 X27.46 Y21.529 E72.31208
G1 X26.71 Y24.327 E72.49273
G1 X26.515 Y24.215 E72.50675
G1 X18.871 Y16.572 E73.18086
G1 X16.686 Y15.309 E73.33825
G1 X12.863 Y16.334 E73.58509
G1 X13.262 Y16.562 E73.61374
G1 X14.011 Y13.766 E73.79426
G1 X13.011 Y13.188 E73.86629
G1 X9.692 Y14.077 E74.08057
G1 X9.518 Y14.402 E74.10356
G1 X10.572 Y15.009 E74.17941
G1 X11.321 Y12.213 E74.35992
G1 X10.915 Y11.979 E74.38915
G1 X10.58 Y12.523 E74.42899
G1 X16.474 Y18.418 E74.94885
G1 X15.951 Y18.115 E74.98654
G1 X16.701 Y15.319 E75.16707
G0 F6000 X31.5 Y23.209
G0 X31.98 Y22.93
G0 X34.378 Y18.821
G0 X34.609 Y19.053
;TYPE:SKIN
G1 F1200 X34.433 Y19.23 E75.19239
G0 F6000 X34.91 Y19
G1 F1200 X35.264 Y19 E75.21832
G1 X47.992 Y19 E76.15071
G1 X48.446 Y18.748 E76.18875
G0 F6000 X48.414 Y18.716
G0 X48.165 Y43.216
G1 F1200 X48.478 Y43.528 E76.20253
G0 F6000 X48.096 Y43.5
G1 F1200 X47.743 Y43.5 E76.22993
G1 X43.5 Y43.5 E76.55935
G1 X43.013 Y43.72 E76.60084
G0 F6000 X43.078 Y43.785
G0 X40.05 Y43.586
G1 F1200 X39.679 Y43.214 E76.61723
G0 F6000 X39.61 Y43.499
G2 X34.662 Y43.501 I-0.176 J5684.016 E76.98126 F1200
G1 X34.485 Y43.678 E76.99968
G0 F6000 X34.378 Y43.571
G1 F1500 E70.49968
;MESH:ledMount.stl(16)
G0 F6000 X39.528 Y44.223
G0 X43.48 Y59.499
G0 X44.665 Y59.499
G0 X46.152 Y63.348
G0 X46.742 Y64.368
G0 X69.5 Y55.791
G0 X70.034 Y56.102
G0 X70.03 Y59.843
G0 X86.321 Y59.499
;TYPE:WALL-INNER
G1 F1500 E76.99968
G1 F1200 X86.321 Y52.999 E77.40503
G1 X72.821 Y52.999 E78.24693
G1 X72.821 Y59.499 E78.65229
G1 X86.321 Y59.499 E79.49419
G0 F6000 X85.821 Y58.999
;TYPE:WALL-OUTER
G1 F1200 X85.821 Y53.499 E79.83718
G1 X73.321 Y53.499 E80.61672
G1 X73.321 Y58.999 E80.95971
G1 X85.821 Y58.999 E81.73924
G0 F6000 X86.171 Y58.999
G0 X86.321 Y42.499
;TYPE:WALL-INNER
G1 F1200 X86.321 Y35.999 E82.1446
G1 X72.821 Y35.999 E82.9865
G1 X72.821 Y42.499 E83.39186
G1 X86.321 Y42.499 E84.23375
G0 F6000 X85.821 Y41.999
;TYPE:WALL-OUTER
G1 F1200 X85.821 Y36.499 E84.57675
G1 X73.321 Y36.499 E85.35628
G1 X73.321 Y41.999 E85.69928
G1 X85.821 Y41.999 E86.47881
G1 F1500 E79.97881
G0 F6000 X86.171 Y41.999
G0 X88.966 Y50.944
G0 X110.198 Y67.492
;TYPE:WALL-INNER
G1 F1500 E86.47881
G1 F1200 X89.499 Y55.542 E87.96934
G1 X88.75 Y55.977 E88.02335
G1 X88.75 Y60.499 E88.30536
G1 X70.25 Y60.499 E89.45907
G1 X70.25 Y55.977 E89.74107
G1 X69.501 Y55.542 E89.79509
G1 X48.802 Y67.492 E91.28561
G3 X47.054 Y64.461 I28.724 J-18.585 E91.50391 F1200
G1 X70.25 Y51.069 E93.17425
G1 X70.25 Y34.999 E94.17642
G1 X77.75 Y34.999 E94.64414
G1 X77.75 Y11.294 E96.12245
G3 X81.250 Y11.294 I1.750 J34.529 E96.34081
G1 X81.25 Y34.999 E97.81912
G1 X88.75 Y34.999 E98.28684
G1 X88.75 Y51.069 E99.28901
G1 X111.946 Y64.461 E100.95935
G3 X110.198 Y67.492 I-31.038 J-15.880 E101.17765
G0 F6000 X110.358 Y68.162
;TYPE:WALL-OUTER
G1 F1200 X89.5 Y56.12 E102.67963
G1 X89.25 Y56.265 E102.69765
G1 X89.25 Y60.999 E102.99288
G1 X69.75 Y60.999 E104.20895
G1 X69.75 Y56.265 E104.50418
G1 X69.5 Y56.12 E104.5222
G1 X48.642 Y68.162 E106.02418
G3 X46.393 Y64.265 I29.968 J-19.892 E106.30495 F1200
G1 X69.75 Y50.78 E107.98689
G1 X69.75 Y34.499 E109.00222
G1 X77.25 Y34.499 E109.46994
G1 X77.25 Y10.82 E110.94663
G3 X81.750 Y10.820 I2.250 J35.933 E111.22743
G1 X81.75 Y34.499 E112.70412
G1 X89.25 Y34.499 E113.17184
G1 X89.25 Y50.78 E114.18717
G1 X112.607 Y64.265 E115.86911
G3 X110.358 Y68.162 I-32.439 J-16.124 E116.14988
G0 F6000 X110.256 Y67.73
G0 X110.56 Y66.244
;TYPE:FILL
G1 F1200 X110.643 Y66.101 E116.1602
G1 X105.942 Y61.4 E116.5748
G1 X104.98 Y60.844 E116.64409
G1 X101.158 Y61.868 E116.89085
G1 X98.538 Y60.355 E117.07952
G1 X99.288 Y57.557 E117.26017
G1 X101.306 Y58.722 E117.40549
G1 X97.483 Y59.747 E117.65232
G1 X95.848 Y58.802 E117.77009
G1 X96.598 Y56.004 E117.95074
G1 X97.632 Y56.601 E118.0252
G1 X93.809 Y57.625 E118.27202
G1 X93.509 Y57.452 E118.29361
G1 X78.906 Y42.849 E119.58152
G1 X78.382 Y42.848 E119.61419
G1 X75.756 Y52.649 E120.24697
G1 X75.977 Y52.649 E120.26075
G1 X70.598 Y47.27 E120.73515
G1 X70.599 Y48.315 E120.80032
G1 X88.398 Y43.546 E121.94946
G1 X88.398 Y40.44 E122.14316
G1 X86.67 Y40.903 E122.25473
G1 X86.67 Y37.885 E122.44294
G1 X88.399 Y39.614 E122.59543
G1 X88.399 Y40.239 E122.6344
G1 X85.074 Y52.648 E123.43556
G1 X84.463 Y52.649 E123.47366
G1 X74.663 Y42.849 E124.33797
G1 X75.277 Y42.848 E124.37626
G1 X72.65 Y52.649 E125.00905
G1 X72.471 Y52.649 E125.02021
G1 X72.47 Y53.321 E125.06212
G1 X70.641 Y60.148 E125.50289
G1 X70.75 Y60.149 E125.50968
G1 X70.598 Y59.998 E125.52305
G1 X70.6 Y57.633 E125.67053
G1 X72.47 Y57.132 E125.79127
G1 X72.47 Y57.627 E125.82214
G1 X67.756 Y52.912 E126.23793
G1 X66.114 Y53.86 E126.35617
G1 X65.09 Y57.683 E126.60298
G1 X64.425 Y58.066 E126.65084
G1 X62.376 Y56.018 E126.83151
G1 X60.074 Y57.347 E126.99727
G1 X72.47 Y54.026 E127.79758
G1 X72.47 Y53.384 E127.83762
G1 X70.446 Y51.359 E128.01617
G1 X70.6 Y51.271 E128.02723
G1 X70.599 Y48.712 E128.18682
G1 X72.47 Y41.732 E128.63748
G1 X72.469 Y41.602 E128.64558
G1 X70.599 Y42.104 E128.76633
G1 X70.6 Y38.998 E128.96003
G1 X72.469 Y38.497 E129.0807
G1 X72.47 Y40.656 E129.21534
G1 X70.598 Y38.784 E129.38044
G1 X70.599 Y37.121 E129.48415
G1 X71.075 Y35.348 E129.59864
G1 X70.6 Y35.349 E129.62826
G1 X70.6 Y35.892 E129.66212
G1 X72.628 Y35.348 E129.79306
G1 X71.405 Y35.348 E129.86933
G1 X72.47 Y36.413 E129.96326
G1 X72.471 Y35.649 E130.01091
G1 X75.948 Y35.648 E130.22774
G1 X75.648 Y35.348 E130.2542
G1 X74.18 Y35.347 E130.34575
G1 X74.1 Y35.649 E130.36523
G0 F6000 X77.528 Y34.777
G0 X78.099 Y29.314
G1 F1200 X80.899 Y32.114 E130.61218
G1 X80.899 Y30.026 E130.74239
G1 X78.099 Y30.776 E130.92316
G1 X78.1 Y27.671 E131.1168
G1 X80.899 Y26.921 E131.29751
G1 X80.899 Y27.872 E131.35681
G1 X78.099 Y25.071 E131.6038
G1 X78.1 Y24.565 E131.63536
G1 X80.898 Y23.815 E131.81601
G1 X80.899 Y23.629 E131.82761
G1 X78.099 Y20.829 E132.07455
G1 X78.1 Y21.459 E132.11384
G1 X80.898 Y20.709 E132.29449
G1 X80.899 Y21.866 E132.36665
G1 X78.099 Y32.314 E133.0412
G1 X78.099 Y33.557 E133.11872
G1 X80.19 Y35.648 E133.30314
G1 X77.206 Y35.649 E133.48923
G1 X77.286 Y35.347 E133.50871
G1 X78.1 Y35.349 E133.55947
G1 X78.099 Y33.882 E133.65096
G1 X80.898 Y33.132 E133.83167
G1 X80.899 Y33.456 E133.85188
G1 X80.311 Y35.648 E133.99341
G1 X83.417 Y35.648 E134.18711
G1 X83.498 Y35.348 E134.20648
G1 X84.133 Y35.348 E134.24609
G1 X84.433 Y35.648 E134.27254
G1 X86.523 Y35.649 E134.40288
G1 X86.604 Y35.347 E134.42238
G1 X84.22 Y35.348 E134.57105
G1 X83.1 Y35.648 E134.64336
G0 F6000 X86.671 Y35.649
G1 F1200 X86.671 Y37.797 E134.77732
G1 X88.399 Y37.334 E134.88888
G1 X88.4 Y35.349 E135.01267
G1 X88.376 Y35.348 E135.01417
G1 X88.399 Y35.372 E135.01624
G0 F6000 X86.099 Y42.277
G0 X84.594 Y42.847
G1 F1200 X81.968 Y52.648 E135.64902
G1 X80.22 Y52.649 E135.75803
G1 X70.598 Y43.027 E136.60663
G1 X70.599 Y45.209 E136.74271
